static/img/logos/fastify-black-logo.svg

<svg xmlns="http://www.w3.org/2000/svg" width="3204" height="2071" viewBox="0 0 3204 2071"><path d="m3060 332 97-250-4-16-956 252c102-148 67-266 67-266s-305 195-536 190-305-67-659 46-454 459-557 534c-102 74-423 321-423 321l290-93s-82 78-251 305v1c27 38 146 195 264 161 13-4 28-11 45-19 53 30 124 59 201 67 0 0-52-60-96-130l36-23-6 4 111 40-12-104h1l108 40-13-95 41-20 113-428 468-320-37 94c-95 233-273 288-273 288l-74 29c-56 65-79 81-98 301 45-12 87-14 126-4 200 54 269 295 215 362-13 16-45 45-86 78h-81l-1 66-8 7h-83l-1 64-22 16c-77 2-176-66-176-66 1 62 52 157 52 157l9-5-8 6s208 138 339 87c116-46 417-283 677-395l786-208 104-268-599 158v-242l703-185 104-269-807 213V572ZM1633 843l187-49 2 9-58 151-193 51Zm64 323-193 51 63-162 186-49 3 9Zm252-54-193 51 63-162 186-49 3 9Zm-5305-455 6-31c17-90 51-167 114-225 46-43 114-69 191-69 49 0 86 7 109 15l-43 148c-18-6-35-9-60-9-69 0-109 72-122 138l-6 33h146l-26 135h-143l-119 618h-192l118-618m657 618 6-126h-5c-60 100-132 138-192 138-110 0-164-94-164-226 0-228 114-552 438-552 75 0 151 13 197 31l-83 419c-18 88-32 234-31 316Zm69-618c-15-3-29-4-40-4-126 0-194 251-196 362 0 66 10 114 57 114 53 0 102-87 130-224Zm234 453c31 17 68 32 122 31 56-2 86-37 86-85 0-42-20-71-72-112-65-53-96-119-96-184 0-138 108-251 279-251 67 0 114 12 142 28l-42 140c-21-12-57-23-89-23-62 0-100 32-100 83 0 39 22 62 57 91 85 65 113 139 113 197 0 167-116 259-289 259-69 0-131-20-157-38Zm851-792-39 204h296l-25 135h-297l-66 350c-5 26-6 49-6 63 0 46 23 63 58 63 14 0 34 0 52-3l-23 145c-35 9-78 12-115 12-116 0-173-64-173-166 0-34 6-76 14-113l66-351h-87l26-136h88l30-155Z"/></svg>

<?xml version="1.0" encoding="UTF-8"?>
<!-- Generated by Pixelmator Pro 3.8 -->
<svg width="3204" height="2071" viewBox="0 0 3204 2071" xmlns="http://www.w3.org/2000/svg">
    <path id="Percorso" fill="#000000" stroke="none" d="M 3060 332 L 3157 82 L 3153 66 L 2197 318 C 2299 170 2264 52 2264 52 C 2264 52 1959 247 1728 242 C 1497 237 1423 175 1069 288 C 715 401 615 747 512 822 C 410 896 89 1143 89 1143 L 379 1050 C 379 1050 297 1128 128 1355 L 128 1356 C 155 1394 274 1551 392 1517 C 405 1513 420 1506 437 1498 C 490 1528 561 1557 638 1565 C 638 1565 586 1505 542 1435 L 578 1412 L 572 1416 L 683 1456 L 671 1352 L 672 1352 L 780 1392 L 767 1297 L 808 1277 L 921 849 L 1389 529 L 1352 623 C 1257 856 1079 911 1079 911 L 1005 940 C 949 1005 926 1021 907 1241 C 952 1229 994 1227 1033 1237 C 1233 1291 1302 1532 1248 1599 C 1235 1615 1203 1644 1162 1677 L 1081 1677 L 1080 1743 L 1072 1750 L 989 1750 L 988 1814 L 966 1830 C 889 1832 790 1764 790 1764 C 791 1826 842 1921 842 1921 L 851 1916 L 843 1922 C 843 1922 1051 2060 1182 2009 C 1298 1963 1599 1726 1859 1614 L 2645 1406 L 2749 1138 L 2150 1296 L 2150 1054 L 2853 869 L 2957 600 L 2150 813 L 2150 572 Z M 1633 843 L 1820 794 L 1822 803 L 1764 954 L 1571 1005 Z M 1697 1166 L 1504 1217 L 1567 1055 L 1753 1006 L 1756 1015 Z M 1949 1112 L 1756 1163 L 1819 1001 L 2005 952 L 2008 961 Z M -3356 657 L -3350 626 C -3333 536 -3299 459 -3236 401 C -3190 358 -3122 332 -3045 332 C -2996 332 -2959 339 -2936 347 L -2979 495 C -2997 489 -3014 486 -3039 486 C -3108 486 -3148 558 -3161 624 L -3167 657 L -3021 657 L -3047 792 L -3190 792 L -3309 1410 L -3501 1410 L -3383 792 M -2726 1410 L -2720 1284 L -2725 1284 C -2785 1384 -2857 1422 -2917 1422 C -3027 1422 -3081 1328 -3081 1196 C -3081 968 -2967 644 -2643 644 C -2568 644 -2492 657 -2446 675 L -2529 1094 C -2547 1182 -2561 1328 -2560 1410 Z M -2657 792 C -2672 789 -2686 788 -2697 788 C -2823 788 -2891 1039 -2893 1150 C -2893 1216 -2883 1264 -2836 1264 C -2783 1264 -2734 1177 -2706 1040 Z M -2423 1245 C -2392 1262 -2355 1277 -2301 1276 C -2245 1274 -2215 1239 -2215 1191 C -2215 1149 -2235 1120 -2287 1079 C -2352 1026 -2383 960 -2383 895 C -2383 757 -2275 644 -2104 644 C -2037 644 -1990 656 -1962 672 L -2004 812 C -2025 800 -2061 789 -2093 789 C -2155 789 -2193 821 -2193 872 C -2193 911 -2171 934 -2136 963 C -2051 1028 -2023 1102 -2023 1160 C -2023 1327 -2139 1419 -2312 1419 C -2381 1419 -2443 1399 -2469 1381 Z M -1572 453 L -1611 657 L -1315 657 L -1340 792 L -1637 792 L -1703 1142 C -1708 1168 -1709 1191 -1709 1205 C -1709 1251 -1686 1268 -1651 1268 C -1637 1268 -1617 1268 -1599 1265 L -1622 1410 C -1657 1419 -1700 1422 -1737 1422 C -1853 1422 -1910 1358 -1910 1256 C -1910 1222 -1904 1180 -1896 1143 L -1830 792 L -1917 792 L -1891 656 L -1803 656 L -1773 501 Z"/>
</svg>
